X:1
T:Khvalitye imya Gospodie
T:Сергeй Рахманинов, 1910
T:Attributed to John Chrysostom, c. 349-407 AD
T:Иже херувимы
T:Литургиа Святого Иоанна Златоуста , Op. 31, No. 8a
T:Public Domain
T:Public Domain
T:Public Domain
T:Public Domain
T:Public Domain
T:Public Domain
T:Public Domain
T:Public Domain
C:Sergei Rakhmanninov
Z:Public Domain
%%score [ ( 1 2 ) ( 3 4 ) ( 5 6 ) ( 7 8 ) ]
L:1/8
Q:1/4=40
M:3/4
K:G
V:1 treble nm="Сопрано" snm="С"
V:2 treble 
V:3 treble nm="Альт" snm="А"
V:4 treble 
V:5 treble-8 nm="Тенор" snm="Т"
V:6 treble-8 
V:7 bass nm="Бас" snm="Б"
V:8 bass 
V:1
!pp!"^Очень медленно\nVery slow""^И  –   же    хе    –   ру – ви   –    мы,   хе   –    ру – ви      –        –        мы,                хе    –    ру  – ви    –     мы,""^I    –  zhe   khe –   ru  – vi     –   mui, khe  –    ru –  vi      –         –       mui,               khe  –    ru   – vi     –    mui," d4 d2 | %1
 d4 d2 | d4 d2 | d4 d2 |!<(! d6!<)! | d6 |!>(! (d2 c2) B2!>)! | D4 D2 | %8
!pp!"^тай –  но   об     –    ра –зу–ю –  ще, тай     –     но        тай-но          об–ра –зу   –   ю – ще,  об  – ра  – зу   –    ю–""^tai   –  no   ob     –    ra –zu-yu-shche, tai      –      no         tai –no          ob–ra – zu  – yu-shche, ob  – ra  – zu   –   yu–" (!tenuto!B3 c) B2 | %9
 (B2 A2) B2 | A2 B2 A2 | (A2 G2) A2- | A2!<(! E2 F2-!<)! | F2 G2 A2 | (B2!>(! A2) G2!>)! | %15
 A2 B2 c2 |!pp! d4 d2 | %17
"^–ще,                                                                                                                                 три   –   свя –ту–ю песнь при    –     пе –""^–shche,                                                                                                                              tri    –  svya–tu–yu  pes n'  pri      –    pye–" d6- | %18
 d2 z2 z2 | z6 | z6 | z6 |!pp! A4 c2 | A2 Bc d2 | (A2 GA) B2 | %25
"^–ва  – ю  –   ще,      три     –     свя  –  ту– ю  песнь при   –    пе   –  ва–ю –  ще.         Вся     –        –     ко    –     е""^–va  – yu – shche,   tri       –    svya  –  tu –yu  pesn'   pri     –    pe   –   va–yu-shche.     Vsya    –        –     ko    –    ye" F2 EF D2 | %26
 D4 D2 | G2!<(! FE D2!<)! | c4 B2 |!>(! A2 B2 c2!>)! |!pp! d6 | d4 d2 | %32
"^ны         –         не               жи    –    тей – ско   –   е   от–ло   –  жим                        по – пе   –  че  –   ни  – е.""^nui         –         nye             zhi    –     tei   – sko    – ye  ot – lo   –  zhim                        po –  pe   – che –   ni   –ye." d6 | %33
 d4 d2 | (d2!<(! F2) G2!<)! | F2 G2 A2 | B6- | B2 c2 Bc |!>(! A4 B2!>)! | (A2 G4-) | G6- | %41
 G2"^по–пе –че    –    ни         –       е.            А    –    минь.""^po–pe–che     –   ni        –        ye.          A     –    min'." G2 G2 | %42
!pp! G6 | (F4 G2) | !fermata!G6 | G6 | G6 |] %47
[M:2/2][Q:1/4=80]!ff!"^Темп вдвое скорее\nTempo twice as fast""^Я   –   ко  да   Ца  –   ря            всех         по – ды   –   мем,  Ца  – ря               всех       по  – ды      –      мем.      Ца –""^Ya  –  ko  da   Tsa  – rya           vsekh       po – dui   –  mem, Tsa – rya             vsekh     po  – dui      –     mem.    Tsa –" [ce]3 [ce] [ce]2 [ce]2 | %48
 [ce]8 |!<(! (([ce]2 [df]4)) g2!<)! |!>(! B4 c2 c2!>)! |!f! !tenuto!d4 !tenuto!d3 [ce] | %52
 !tenuto!d4 !tenuto!d3 [ce] | %53
"^– ря          всех      по –  ды      –      мем,  по – ды –  мем. Ца –  ря         всех по – ды  –  мем, по – ды  –  мем.   Ца –""^–rya        vsekh     po –  dui     –      mem, po  – dui–  mem.Tsa – rya      vsekh po– dui  – mem, po – dui – mem.  Tsa –" !tenuto!d4 !tenuto!d3 [ce] | %54
 ((d2 [FA]2)) G2 A2 | B4!<(! B2 c2!<)! | (E2 F2) ^G2 A2 | (d2 c2) B2 A2 | %58
 (=f2 e2)!<(! (3(d2 c2) B2!<)! | %59
!ff!"^– ря   всех по – ды – мем, по–ды – мем, по–ды   –   мем.             Ан        –       гель      –       ски      –      ми,""^– rya vsekh po– dui –mem, po-dui –mem, po-dui   –  mem.             An        –       gel'         –       ski        –      mi," [eg]4 [eg]2 [eg]2 | %60
 [eg]4 [eg]2 [df]2 | ((!>![df]2 [ce]2)) !>![ce]2 [Bd]2 | ((!>![Bd]2 [Ac]2)) (B2 A2) | %63
!ff! !tenuto!d4 ((d3 [ce])) | !tenuto!d4 ((!tenuto!d3 [ce])) | %65
"^Постепенно замедляя и сокращая звучность\nGradually slower and softer"!f!"^Ан    –    гель   –   ски –ми не– ви      –      ди– мо до-ри-но-си – ма     чин – ми.   Ал-ли-лу-иа,  Ал-ли-лу-иа,""^An    –    gel'     –   ski  – mi   ne– vi       –       di – mo do-ri–no–si  – ma     chin – mi.    Al– li –lu –ia,    Al– li –lu –ia," d4 (G2 A2) | %66
[Q:1/4=70] (B2 A2) [GB]2 [Ac]2 | [Bd]6[Q:1/4=60] [EG]2 | [FA]2 [GB]2 [GB]2 [Ac]2 | %69
!mf![Q:1/4=50] [Bd]4 G4 | (c2!>(! B2) A4!>)! | %71
!p![Q:1/4=40]"^Все медленнее\nAll slower" [Bd]2 [Gc]2 B2 A2 | [Bd]2 [GB]2 A2 G2 | %73
"^Ал  – ли – лу– иа,      Ал–ли–лу  – иа,      Ал      –    ли  – лу      –     иа,     Ал      –     ли    –    лу   –  иа,        Ал  – ли –""^Al   –  li   –  lu – ia,        Al– li  – lu   –  ia,       Al       –      li   –  lu       –      ia,      Al      –       li     –     lu    –   ia,         Al   –  li  –" [Bd]2 A2 G2 F2 | %74
 E2 F2 G2 A2 |!p![Q:1/4=35]"^Еже медленнее и замедляя\nEven slower and slowing" (G2 F4) c2 | %76
 (F2 E4) B2 | (E2 D4) E2- |[Q:1/4=30] E2 F4 G2- | G2 A4 G2- | %80
 G2[Q:1/4=25]"^– лу         –         –         –         –         –          иа.""^– lu          –         –         –         –         –           ia."!>(! (A4 B2-!>)! | %81
 B2 c4!pp! d2) | !fermata!d8 |] %83
V:2
 d4 d2 | (c2 B2) A2 | (G2 F2) E2 | (A2 G2) F2 | (E2 D2 E2) | (F2 G2 A2) | (G2 A2) B2 | x6 | x6 | %9
 x6 | x6 | x6 | x6 | x6 | x6 | x6 | x6 | x6 | x6 | x6 | x6 | x6 | x6 | x6 | x6 | x6 | x6 | x6 | %28
 x6 | x6 | (d2 c2 B2) | (c2 B2) A2 | (B2 A2 G2) | (A2 G2) F2 | (G2 F2) G2 | x6 | x6 | x6 | x6 | %39
 x6 | x6 | x6 | x6 | x6 | x6 | x6 | x6 |][M:2/2] x8 | x8 | x8 | x8 | x8 | x8 | x8 | x8 | x8 | x8 | %57
 x8 | x8 | x8 | x8 | x8 | x8 | x8 | x8 | x8 | x8 | x8 | x8 | x8 | x8 | x8 | x8 | x8 | x8 | x8 | %76
 x8 | x8 | x8 | x8 | x8 | x8 | x8 |] %83
V:3
!pp!"^И  –  же     хе   –    ру – ви    –   мы,   хе   –    ру – ви     –    мы,        и     –    же    хе   –    ру – ви    –     мы,""^I    – zhe    khe –   ru  – vi      –  mui, khe  –    ru –  vi      –    mui,        i     –    zhe   khe  –   ru  – vi     –    mui," (d2 c2) B2 | %1
 (A2 G2) F2 | (B2 A2) G2 | (F2 E2) D2 |!<(! (G2 F2) E2!<)! | (F2 G2) A2 |!>(! D4 D2!>)! | %7
 ((A2 G2)) F2 | %8
!pp!"^тай –  но,  тай   –  но    об     –    ра –зу – ю –  ще,   тай –  но     об  –  ра  –зу    –  ю – ще,  об  – ра  –  зу   –    ю–""^tai   –  no,   tai    –   no    ob     –    ra –zu –yu-shche,  tai    –  no     ob  –  ra  – zu – yu-shche, ob  – ra  –   zu   –   yu–" (E2 D2) E2 | %9
 (!tenuto!D3 E) D2 | D4 D2 | C2 D2 C2 |!<(! D4 D2!<)! | D4 G2 |!>(! G4 D2!>)! | D2 D2 G2 | %16
!pp! (G2 F2) E2 | %17
"^–ще,                    и               жи–во –тво–ря        –       щей      Трой–це     три   –   свя–ту     –    ю песнь при – пе –""^–shche,               i                zhi–vo – tvo–rya       –    shchei      Troi –tse       tri    –  svya–tu     –   yu   pesn'  pri   –pye–" F6- | %18
 F2!p! (D2 E2) |!<(! [DF]2 [DF]2 [EG]2!<)! |!>(! (F2 E2) D2!>)! |!p! (E2 F2) G2 |!pp! [DF]4 [EG]2 | %23
 [DF]4 [DF]2 | F2 EF GE | %25
"^–ва  – ю  –   ще,      три     –     свя  –  ту     –      ю  песнь при–пе – ва – ю – ще.         Вся     –        –     ко    –     е""^–va  – yu – shche,   tri       –    svya  –  tu      –    yu   pesn'   pri  –pe  – va–yu-shche.      Vsya    –        –     ko    –    ye" D3 D D2 | %26
 (D2 CB,) A,2 |!<(! D4 D2!<)! | E2 [DF]2 [EG]2 |!>(! [FA]2 G2 A2!>)! |!pp! (B2 A2 G2) | %31
 (A2 G2) F2 | %32
"^ны         –         не               жи   –""^nui         –         nye             zhi   –" (G2 F2 E2) | %33
 (F2 E2) D2 | %34
"^тей–ско     –    е   от–ло   –  жим                        по – пе   –  че  –   ни  – е.""^tei – sko     –  ye   ot – lo   –  zhim                        po –  pe   – che –   ni   –ye." G2!<(! (D3 E)!<)! | %35
 D2 D3 C | (B,2 G2 F2 | =F2) E2 D2 | (C2!>(! E2) D2!>)! | (C2 B,4-) | %40
 B,2"^от–ло–жим по–пе–че   –   ни       –          е.            А    –    минь.""^ot – lo–zhim po–pe–che  –   ni        –         ye.          A     –     min'." C2 D2 | %41
 [CE]2 [DF]2 [EG]2 |!pp! D6 | (C4 B,2) | !fermata!B,6 | B,6 | B,6 |][M:2/2]!ff! G3 G G2 G2 | G8 | %49
!<(! (G2 c4) d2!<)! |!>(! G4 A2 A2!>)! |!f! [GB]2 [DF]2 !tenuto![EG]2 !tenuto![FA]2 | %52
 ((!tenuto![GB]2 [DF]2)) !tenuto![EG]2 !tenuto![FA]2 | %53
 ((!tenuto![GB]2 [DF]2)) !tenuto![EG]2 !tenuto![FA]2 | (([GB]2 [FA]2)) G2 F2 | %55
 !>!E4!<(! E2 F2!<)! | (^G2 A2) B2 c2 | (d2 c2) B2 A2 | (^G2 A2)!<(! (3(B2 c2) d2!<)! | %59
!ff! c4 c2 c2 | c4 c2 d2 | (!>!B2 c2) !>!A2 B2 | (!>!G2 A2) (G3 A) | %63
!ff! ((!tenuto![GB]2 [DF]2)) ((!tenuto![EG]2 [FA]2)) | %64
 ((!tenuto![GB]2 [DF]2)) ((!tenuto![EG]2 [FA]2)) |!f! [GB]4 D4 | D4 G2 G2 | (G2 F2 E2) D2 | %68
 D2 D2 D2 D2 |!mf! D4 B,4 |!>(! C4 D4!>)! |!p! G2 E2 G2 C2 | G2 D2 E2 B,2 | G2 D2 E2 D2 | %74
 D2 D2 D2 C2 | %75
!p!"^Ал          –            ли         –             лу      –         –         –         –         –         –""^Al           –             li           –             lu       –         –         –         –         –         –" C8 | %76
 B,8 | C8- | C8- | C8- | %80
 C2"^–иа, Ал–ли  –  лу        –         –         –     иа.""^– ia,   Al– li    –   lu         –         –         –      ia."!>(! C2 D2 ^D2!>)! | %81
 (E2 F2 G2 (3!tenuto!A!tenuto!B!tenuto!c) |!pp! !fermata!B8 |] %83
V:4
 x6 | x6 | x6 | x6 | x6 | (D2 E2) F2 | (E2 F2) G2 | A2 G2 F2 | x6 | x6 | x6 | x6 | D4 C2 | %13
 (B,2 D2) G2 | x6 | C2 B,2 G2 | x6 | x6 | x2 D4 | x6 | (D2 CB,) CD | D4 D2 | x6 | x6 | D2 D2 D2 | %25
 x6 | x6 | x6 | x6 | x6 | x6 | x6 | x6 | x6 | D2 x4 | x6 | x6 | x6 | x6 | x6 | x6 | x6 | x6 | x6 | %44
 x6 | x6 | x6 |][M:2/2] x8 | x8 | x8 | x4 G2 G2 | x8 | x8 | x8 | x8 | x8 | x8 | E4 E2 F2 | x8 | %59
 x8 | x8 | x8 | x4 G4 | x8 | x8 | x4 (D2 C2) | (B,2 D2) G2 G2 | x8 | x8 | x8 | x8 | G2 E2 D2 C2 | %72
 G2 D2 C2 E2 | G2 C2 B,2 C2 | B,2 B,2 B,2 C2 | x8 | x8 | x8 | x8 | x8 | x8 | x8 | x8 |] %83
V:5
 z6 | %1
 z2 z2!pp!"^И      –       –   же      хе   –   ру –  ви      –        –        мы,                 хе   –    ру –  ви    –    мы,""^I       –      –   zhe    khe –   ru  –  vi      –        –        mui,              khe  –    ru  –  vi    –    mui," (d2- | %2
 d4) d2 | d4 d2 |!<(! d4- de!<)! | d6 |!>(! (([Gd]2 [Fc]2)) [GB]2!>)! | (A2 B2) A2 | %8
!pp!"^тай –  но,  тай   –  но,   тай   –  но     об      –     ра – зу–ю–ще,  тай – но   об    –        –        –      –  ра  –  зу    –   ю –""^tai   –  no,   tai     –   no,    tai   –   no     ob       –   ra–zu –yu-shche, tai  – no   ob     –        –        –     –  ra   –  zu    – yu –" (G2 F2) G2 | %9
 (G2 F2) G2 | (!tenuto!F3 G) F2 | (E2 e2) E2 | F2!<(! G2 A2!<)! | B4 c2 |!>(! (d4 e2!>)! | %15
 f2 g2) c2 |!pp! d4 d2 | %17
"^–ще,                    и              жи–во –тво–ря      –       щей        Трой–це      три   –   свя–ту    –    ю песнь при – пе –""^–shche,                i               zhi–vo – tvo–rya       –    shchei      Troi –tse       tri    –  svya–tu     –   yu   pesn'  pri   –pye–" d6- | %18
 d2!p! (F2 B2) |!<(! A2 A2 c2!<)! |!>(! A4 A2!>)! |!p! (B2 A2) G2 |!pp! (d2 cB) A2 | (d3 c) B2 | %24
 d2 BA G2 | %25
"^–ва  – ю  –   ще,      три     –     свя  –  ту     –      ю  песнь при–пе – ва     –     ю     –     ще.           Вся    –     ко    –   е""^–va  – yu – shche,   tri       –    svya  –  tu      –    yu   pesn'   pri  –pe  – va     –    yu    – shche.         Vsya   –     ko    –  ye" A2 B2 F2 | %26
 ((F2 [EG]2)) [FA]2 | (([GB]2!<(! [Ac]2)) [Bd]2!<)! | [ce]2 [Bd][Ac] [GB]2 |!>(! (A2 d3) c!>)! | %30
 [DB]2 z2!pp! e2- | e2 d3 e | %32
"^ны–не""^nui–nye""^ны          –           не   жи       –       тей–ско–е        от   –  ло   –    жим                       по –пе   –  че  –   ни  – е.""^nui           –         nye   zhi      –        tei – sko–ye      ot   –   lo     –   zhim                       po –pe   – che  –   ni   –ye." d2 d4- | %33
 d2 (d3 c) | B2!<(! A2 G2!<)! | (A2 G2) F2 | (G2 B2 A2 | _A2) G2 =F2 | (E2!>(! G2) F2!>)! | %39
 (E2 D2 G2- | %40
 G2)"^от–ло–жим по–пе–че   –   ни       –          е.            А    –    минь.""^ot – lo–zhim po–pe–che  –   ni        –         ye.          A     –     min'." [GA]2 [GB]2 | %41
 [Gc]2 [Gd]2 [Gc]2 |!pp! B6 | (A4 G2) | !fermata!G6 | D6 | D6 |] %47
[M:2/2]!ff!"^Я   –   ко  да   Ца  –   ря            всех         по – ды   –   мем,  Ца  –  ря              всех     по  –   ды      –      мем.     Ца –""^Ya  –  ko  da   Tsa  – rya           vsekh       po – dui   –  mem, Tsa – rya             vsekh   po  –   dui      –     mem.    Tsa –" e3 e e2 e2 | %48
 e8 |!<(! ((e2 [df]4)) g2!<)! |!>(! d4 c2 c2!>)! |!f! !tenuto!d4 !tenuto!d3 [ce] | %52
 !tenuto!d4 !tenuto!d3 [ce] | %53
"^– ря          всех      по –  ды      –      мем,  по – ды –  мем. Ца –  ря         всех по – ды  –  мем, по – ды  –  мем. Ца –""^–rya        vsekh     po –  dui     –      mem, po  – dui–  mem.Tsa – rya      vsekh po– dui  – mem, po – dui – mem.  Tsa –" !tenuto!d4 !tenuto!d3 [ce] | %54
 (!tenuto!d3 e) d2 d2 | e4!<(! d2 c2!<)! | !>!e4 e2 e2 | !tenuto!e4 e2 e2 | =f4!<(! f2 f2!<)! | %59
!ff!"^– ря   всех по – ды – мем, по–ды – мем, по–ды   –   мем.             Ан        –       гель      –       ски      –      ми,""^– rya vsekh po– dui –mem, po-dui –mem, po-dui   –  mem.             An        –       gel'         –       ski        –      mi," [eg]4 [eg]2 [eg]2 | %60
 [eg]4 [eg]2 [df]2 | ((!>![df]2 [ce]2)) !>![ce]2 [Bd]2 | !>!d4 (([Bd]2 c2)) | %63
!ff! !tenuto!d4 (!tenuto!d3 [ce]) | !tenuto!d4 (!tenuto!d3 [ce]) | %65
!f!"^Ан    –    гель   –   ски –ми не– ви      –      ди– мо до-ри-но-си – ма     чин      –       ми.""^An    –    gel'     –   ski  – mi   ne– vi       –       di – mo do-ri–no–si  – ma     chin     –         mi." d4 (e2 f2) | %66
 (g2 d2) B2 [Ac]2 | [Bd]6 d2 | c2 B2 A2 G2 |!mf! F4 G4 |!>(! c8!>)! |!p! [GB]2 z2 z4 | z8 | z8 | %74
"^Ал    –    ли      –       лу    –    иа,        Ал   –   ли    –    лу    –  иа,           Ал  –  ли    –  лу      –""^Al     –      li        –       lu     –     ia,         Al    –    li      –    lu     –   ia,            Al    –   li     –   lu       –" (G2 A2) (B2 c2) | %75
!p! (d2 c2) (B2 A2) | (!tenuto!d2 B2) (A2 G2) | (d2 A2) (G2 F2) | E4 (D2 E2) | (F4 G2 A2 | %80
 B2!>(! (c2) c4-)!>)! | c8 |!pp!"^– иа.""^–  ia." !fermata![Bd]8 |] %83
V:6
 x6 | x2 x2 d2 | (d2 c2) B2 | (c2 B2) A2 | (B2 A2 G2) | (A2 G2 F2) | (E2 D2) D2 | D4 A2 | x6 | x6 | %10
 x6 | E4 E2 | x6 | x6 | x6 | x6 | (B2 A2) G2 | A6- | A2 x4 | x6 | x6 | x6 | x6 | x6 | x6 | x6 | %26
 x6 | x6 | x6 | (F2 E2) D2 | x6 | x6 | d2 c3 d | c2 (B3 c) | x6 | x6 | x6 | x6 | x6 | x6 | x6 | %41
 x6 | x6 | x6 | x6 | x6 | x6 |][M:2/2] x8 | x8 | x8 | x8 | (d2 c2) B2 A2 | (d2 c2) B2 A2 | %53
 (d2 c2) B2 A2 | (d2 c2) B2 A2 | (d2 c2) B2 A2 | (d2 c2) B2 A2 | (B2 c2) d2 e2 | x8 | x8 | x8 | %61
 x8 | (B2 A2) B2 c2 | (d2 c2) (B2 A2) | (d2 c2) (B2 A2) | x8 | x8 | x8 | x8 | x8 | (E4 F4) | x8 | %72
 x8 | x8 | x8 | x8 | x8 | x8 | x8 | x8 | x8 | x8 | x8 |] %83
V:7
 z6 | z6 | %2
 z2 z2!pp!"^И     –       –    же    хе      –      ру   –   ви   –  мы,    хе    –    ру –  ви   –   мы,""^I       –       –   zhe   khe   –      ru    –    vi   –  mui,  khe  –    ru  –  vi   –    mui," D,2- | %3
 D,4 D,2 |!<(! D,4 D,2!<)! | D,4 C,2 |!>(! (B,,2 A,,2) G,,2!>)! | (F,,2 G,,B,,) D,2 | %8
!pp!"^тай –  но   об     –    ра –зу–ю –  ще,  тай    –     но    тай  – но    об  –   ра  –зу–ю–ще, об      –      ра  – зу– ю–ще,""^tai   –  no   ob     –    ra –zu-yu-shche,  tai     –      no     tai   –  no    ob  –   ra-zu-yu-shche, ob     –     ra –zu–yu–shche," (E,2 B,,2) E,2 | %9
 (B,,2 D,2) B,,2 | D,2 B,,2 D,2 | (!tenuto!A,,3 B,,) A,,2 | (C,2!<(! B,,2) A,,2!<)! | %13
 (G,2 F,2) E,2 | D2!>(! C2 B,2!>)! | (A,2 G,F,) E,2 |!pp! D,3 D, D,2- | %17
 D,2!p!"^и        жи–во–тво– ря   –   щей   Трой    –    це,          Трой – це   три       –        свя        –          ту        –       ю""^i          zhi–vo– tvo–rya – shchei   Troi     –    tse,          Troi   – tse    tri          –       svya       –          tu        –      yu" (A,,2 B,,2) | %18
 !tenuto!C,2 B,,A,, G,,2 |!<(! (!tenuto!C,3 B,,) A,,2!<)! |!>(! (!tenuto!C,2 A,,G,,) F,,2!>)! | %21
!p! (G,,2 A,,2) B,,2 |!pp! D,,6 | D,,6 | D,,4 D,,2 | %25
"^песнь при–пе   –   ва        –       ю   –  ще.                      при    –    пе  –  ва  –   ю–ще.       Вся  –""^pesn'  pri  –pye  –   va       –       yu – shche,                   pri      –     pe  –  va – yu-shche.   Vsya –" D,,2!<(! G,,A,, B,,C,!<)! | %26
!>(! D,4 D,2!>)! |!<(! D,6!<)! | D,4 D,2 |!>(! D,3 D, D,2!>)! | D,6- | D,6 | %32
"^–ко  –    е        ны – не     жи – тей–ско–е          от   –  ло   –   жим                по    –    пе   –   че  –   ни  –  е.""^–ko  –   ye         nui – nye   zhi  –  tei –sko–ye         ot   –   lo   –   zhim                 po     –   pe    – che  –   ni   –ye." D,4 D,2 | %33
 D,E, D,2 D,E, | D,2!<(! C,2 B,,2!<)! | (C,2 B,,2) A,,2 | G,,6 | C,4 D,2 |!>(! A,,4 D,,2!>)! | %39
 (G,,4 G,2 | F,2) E,2 D,2 | C,2 B,,2 A,,2 |!pp! D,6 | D,6 | !fermata!D,6 | G,,6 | G,,6 |] %47
[M:2/2]!ff! C3 C C2 C2 | C8 |!<(! (C2 A,4) B,2!<)! | %50
!>(! (G,2 F,2) E,2"^по  –  ды      –      мем,                 всех            по  –" A,2!>)! | %51
!f! (!tenuto!D,3 E,) !tenuto!D,4 | (!tenuto!D,3 E,) !tenuto!D,4 | %53
"^– ды   –    мем,               всех,                                 всех       по     –     ды  –   мем.  Ца  – ря     всех по  –  ды  –  мем,   Ца –""^–dui   –   mem,              vsekh,                              vsekh      po     –     dui  –  mem,  Tsa –rya  vsekh po –  dui  –  mem, Tsa–" (!tenuto!D,3 E,) !tenuto!D,4 | %54
 !>!D8 | !>!^G,4!<(! (G,2 A,2)!<)! | E,4 E,2 F,2 | (^G,2 A,2) B,2 C2 | %58
 (D2 C2)!<(! (3(B,2 A,2) G,2!<)! |!ff! C4 C2 C2 | (C2 B,2) A,2 B,2 | (!>!G,2 A,2) !>!F,2 G,2 | %62
 (!>!E,2 F,2) (G,2 A,2) |!ff! (D2 C2) (B,2 A,2) | (D2 C2) (B,2 A,2) |!f! (D2 C2) (B,2 A,2) | %66
 (G,2 F,2) E,2 D,2 | (E,2 D,2 C,2) B,,2 | A,,2 G,,2 F,,2 E,,2 |!mf! B,,4 E,4 | %70
"^чин –ми.     Ал       –        –        ли       –""^chin – mi.      Al       –        –         li         –"!>(! A,,4 D,4!>)! | %71
!p! z4"^Ал       –        –""^Al         –        –" D,4- | (D,4 E,4-) | %73
"^– лу              –               иа,                                Ал          –            ли         –             лу      –         –         –         –         –""^–  lu               –                ia,                                 Al           –             li           –             lu       –         –         –         –         –" E,2"^–ли           –           лу     –      иа.""^–  li            –            lu      –      ia." (F,2 G,2 A,2) | %74
 (B,2 A,2) (G,F, E,2) |!p! (D,6 E,2) | (D,6 E,2) | D,8- | D,8- | D,8- |!>(! D,8-!>)! | D,8 | %82
!pp!"^– иа.""^–  ia." !fermata!D,8 |] %83
V:8
 x6 | x6 | x2 x2 G,,2- | G,,4 D,2 | (D,2 C,2) B,,2 | (C,2 B,,2) A,,2 | x6 | x6 | x6 | x6 | x6 | %11
 x6 | x6 | x6 | x6 | x6 | x6 | x6 | x6 | x6 | x6 | x6 | x6 | x6 | x6 | x6 | x6 | x6 | x6 | x6 | %30
 G,,6- | G,,6 | G,,4 G,,2 | G,,2 G,,2 x2 | x6 | x6 | x6 | x6 | x6 | x6 | x6 | x6 | x6 | %43
 (D,4 G,,2) | G,,6 | x6 | x6 |][M:2/2] x8 | x8 | x8 | x8 | x8 | x8 | x8 | x8 | x8 | x8 | x8 | x8 | %59
 x8 | x8 | x8 | x8 | (D,3 E,) D,4 | (D,3 E,) D,4 | x8 | x8 | x8 | x8 | x8 | x8 | [G,,D,]8 | %72
 [G,,D,]8 | [G,,D,]8 | [G,,D,]8 | G,,8 | G,,8 | G,,8- | G,,8- | G,,8- | G,,8- | G,,8 | G,,8 |] %83

